static/img/kroki/82b229b49833384595de2db59b7904f4.svg

<?xml version="1.0" encoding="us-ascii" standalone="no"?><svg xmlns="http://www.w3.org/2000/svg" xmlns:xlink="http://www.w3.org/1999/xlink" contentStyleType="text/css" height="374px" preserveAspectRatio="none" style="width:281px;height:374px;" version="1.1" viewBox="0 0 281 374" width="281px" zoomAndPan="magnify"><defs/><g><!--class aws_q_business_document--><g id="elem_aws_q_business_document"><rect codeLine="23" fill="#3D176E" height="39.7891" id="aws_q_business_document" rx="2.5" ry="2.5" style="stroke:#000D19;stroke-width:0.5;" width="267" x="7" y="328.58"/><ellipse cx="22" cy="348.4745" fill="#ADD1B2" rx="11" ry="11" style="stroke:#181818;stroke-width:1.0;"/><path d="M24.9688,354.1152 Q24.3906,354.412 23.75,354.5527 Q23.1094,354.7089 22.4063,354.7089 Q19.9063,354.7089 18.5781,353.0683 Q17.2656,351.412 17.2656,348.287 Q17.2656,345.162 18.5781,343.5058 Q19.9063,341.8495 22.4063,341.8495 Q23.1094,341.8495 23.75,342.0058 Q24.4063,342.162 24.9688,342.4589 L24.9688,345.1777 Q24.3438,344.5995 23.75,344.3339 Q23.1563,344.0527 22.5313,344.0527 Q21.1875,344.0527 20.5,345.1308 Q19.8125,346.1933 19.8125,348.287 Q19.8125,350.3808 20.5,351.4589 Q21.1875,352.5214 22.5313,352.5214 Q23.1563,352.5214 23.75,352.2558 Q24.3438,351.9745 24.9688,351.3964 L24.9688,354.1152 Z " fill="#000000"/><text fill="#D9B8FF" font-family="Helvetica" font-size="17" lengthAdjust="spacing" textLength="225" x="41" y="354.3598">aws_q_business_document</text></g><!--class aws_resource--><g id="elem_aws_resource"><rect codeLine="26" fill="#3D176E" height="39.7891" id="aws_resource" rx="2.5" ry="2.5" style="stroke:#000D19;stroke-width:0.5;" width="155" x="63" y="167.79"/><ellipse cx="78" cy="187.6845" fill="#ADD1B2" rx="11" ry="11" style="stroke:#181818;stroke-width:1.0;"/><path d="M80.9688,193.3252 Q80.3906,193.622 79.75,193.7627 Q79.1094,193.9189 78.4063,193.9189 Q75.9063,193.9189 74.5781,192.2783 Q73.2656,190.622 73.2656,187.497 Q73.2656,184.372 74.5781,182.7158 Q75.9063,181.0595 78.4063,181.0595 Q79.1094,181.0595 79.75,181.2158 Q80.4063,181.372 80.9688,181.6689 L80.9688,184.3877 Q80.3438,183.8095 79.75,183.5439 Q79.1563,183.2627 78.5313,183.2627 Q77.1875,183.2627 76.5,184.3408 Q75.8125,185.4033 75.8125,187.497 Q75.8125,189.5908 76.5,190.6689 Q77.1875,191.7314 78.5313,191.7314 Q79.1563,191.7314 79.75,191.4658 Q80.3438,191.1845 80.9688,190.6064 L80.9688,193.3252 Z " fill="#000000"/><text fill="#D9B8FF" font-family="Helvetica" font-size="17" lengthAdjust="spacing" textLength="113" x="97" y="193.5698">aws_resource</text></g><!--class resource--><g id="elem_resource"><rect codeLine="29" fill="#3D176E" height="39.7891" id="resource" rx="2.5" ry="2.5" style="stroke:#000D19;stroke-width:0.5;" width="113" x="84" y="7"/><ellipse cx="99" cy="26.8945" fill="#ADD1B2" rx="11" ry="11" style="stroke:#181818;stroke-width:1.0;"/><path d="M101.9688,32.5352 Q101.3906,32.832 100.75,32.9727 Q100.1094,33.1289 99.4063,33.1289 Q96.9063,33.1289 95.5781,31.4883 Q94.2656,29.832 94.2656,26.707 Q94.2656,23.582 95.5781,21.9258 Q96.9063,20.2695 99.4063,20.2695 Q100.1094,20.2695 100.75,20.4258 Q101.4063,20.582 101.9688,20.8789 L101.9688,23.5977 Q101.3438,23.0195 100.75,22.7539 Q100.1563,22.4727 99.5313,22.4727 Q98.1875,22.4727 97.5,23.5508 Q96.8125,24.6133 96.8125,26.707 Q96.8125,28.8008 97.5,29.8789 Q98.1875,30.9414 99.5313,30.9414 Q100.1563,30.9414 100.75,30.6758 Q101.3438,30.3945 101.9688,29.8164 L101.9688,32.5352 Z " fill="#000000"/><text fill="#D9B8FF" font-family="Helvetica" font-size="17" lengthAdjust="spacing" textLength="71" x="118" y="32.7798">resource</text></g><!--reverse link aws_resource to aws_q_business_document--><g id="link_aws_resource_aws_q_business_document"><path codeLine="32" d="M140.5,225.84 C140.5,256.36 140.5,297.69 140.5,328.25 " fill="none" id="aws_resource-backto-aws_q_business_document" style="stroke:#FFAF37;stroke-width:2.0;"/><polygon fill="none" points="140.5,207.84,134.5,225.84,146.5,225.84,140.5,207.84" style="stroke:#FFAF37;stroke-width:2.0;"/></g><!--reverse link resource to aws_resource--><g id="link_resource_aws_resource"><path codeLine="33" d="M140.5,65.05 C140.5,95.57 140.5,136.9 140.5,167.46 " fill="none" id="resource-backto-aws_resource" style="stroke:#FFAF37;stroke-width:2.0;"/><polygon fill="none" points="140.5,47.05,134.5,65.05,146.5,65.05,140.5,47.05" style="stroke:#FFAF37;stroke-width:2.0;"/></g><!--SRC=[XPBDReCm48JlF8Mbd958evOWzP8WLUqbgfhUaR7NmGBRT6sAqfztRsYQoa18hZEVPcTNMqWE15JjzaI1oW5jO4kfQufKaHMYQLDJ6IGp8QXOn4FpmMXt5TXG1UGHgdTmaj4XyLf8LcgmbjnurfgoSeUcqVmOxv1gUx10EuzAAshjoZcKUUF0AyEJV2d4a1o6pXPy7j_123F80V-GA8huF1aYLqTTtFkVsCeF87F_Q1lZO5HpDEANkjYo8xoIeqLF_cJ7Pygvr3jowsalnqwe0Nlwjg3Sj1qjQ6NzCTO1Wd7x6jBHLf0ikOZFmazJSC2wqn7QskmjonihkyV9k66DEdm6-Go2Rmz1iAP11hxUrthK_LSOXbFPmHdi90K_]--></g></svg>

<svg xmlns="http://www.w3.org/2000/svg" width="281" height="374" viewBox="0 0 281 374"><rect width="267" height="39.789" x="7" y="328.58" fill="#3D176E" rx="2.5" ry="2.5" style="stroke:#000d19;stroke-width:.5"/><circle cx="22" cy="348.474" r="11" fill="#ADD1B2" style="stroke:#181818;stroke-width:1"/><path d="M24.969 354.115q-.578.297-1.219.438-.64.156-1.344.156-2.5 0-3.828-1.64-1.312-1.657-1.312-4.782t1.312-4.781q1.328-1.656 3.828-1.656.703 0 1.344.156.656.156 1.219.453v2.719q-.625-.579-1.219-.844-.594-.281-1.219-.281-1.343 0-2.031 1.078-.687 1.062-.687 3.156t.687 3.172q.688 1.062 2.031 1.062.625 0 1.219-.265.594-.281 1.219-.86z"/><text x="41" y="354.36" fill="#D9B8FF" font-family="Helvetica" font-size="17" textLength="225">aws_q_business_document</text><rect width="155" height="39.789" x="63" y="167.79" fill="#3D176E" rx="2.5" ry="2.5" style="stroke:#000d19;stroke-width:.5"/><circle cx="78" cy="187.685" r="11" fill="#ADD1B2" style="stroke:#181818;stroke-width:1"/><path d="M80.969 193.325q-.578.297-1.219.438-.64.156-1.344.156-2.5 0-3.828-1.64-1.312-1.657-1.312-4.782t1.312-4.781q1.328-1.656 3.828-1.656.703 0 1.344.156.656.156 1.219.453v2.719q-.625-.578-1.219-.844-.594-.281-1.219-.281-1.344 0-2.031 1.078-.687 1.062-.687 3.156t.687 3.172q.688 1.062 2.031 1.062.625 0 1.219-.265.594-.281 1.219-.86z"/><text x="97" y="193.57" fill="#D9B8FF" font-family="Helvetica" font-size="17" textLength="113">aws_resource</text><rect width="113" height="39.789" x="84" y="7" fill="#3D176E" rx="2.5" ry="2.5" style="stroke:#000d19;stroke-width:.5"/><circle cx="99" cy="26.895" r="11" fill="#ADD1B2" style="stroke:#181818;stroke-width:1"/><path d="M101.969 32.535q-.578.297-1.219.438-.64.156-1.344.156-2.5 0-3.828-1.64-1.312-1.657-1.312-4.782t1.312-4.781q1.328-1.656 3.828-1.656.703 0 1.344.156.656.156 1.219.453v2.719q-.625-.578-1.219-.844-.594-.281-1.219-.281-1.344 0-2.031 1.078-.687 1.062-.687 3.156t.687 3.172q.688 1.062 2.031 1.062.625 0 1.219-.265.594-.281 1.219-.86z"/><text x="118" y="32.78" fill="#D9B8FF" font-family="Helvetica" font-size="17" textLength="71">resource</text><path fill="none" d="M140.5 225.84v102.41m0-120.41-6 18h12zm0-142.79v102.41m0-120.41-6 18h12z" style="stroke:#ffaf37;stroke-width:2"/></svg>
